64x64/apps/GnomeBaker.svg

<svg xmlns="http://www.w3.org/2000/svg" width="64" height="64" version="1">
 <path style="opacity:0.2" d="M 32,5 C 16.488,5 4,17.488 4,33 4,48.512 16.488,61 32,61 47.512,61 60,48.512 60,33 60,17.488 47.512,5 32,5 Z m 0,16 A 12,12 0 0 1 44,33 12,12 0 0 1 32,45 12,12 0 0 1 20,33 12,12 0 0 1 32,21 Z"/>
 <path style="fill:#848484" d="M 32,17 A 15,15 0 0 0 17,32 15,15 0 0 0 32,47 15,15 0 0 0 47,32 15,15 0 0 0 32,17 Z m 0,9 c 3.3138,0 6,2.6862 6,6 0,3.3138 -2.6862,6 -6,6 -3.3138,0 -6,-2.6862 -6,-6 0,-3.3138 2.6862,-6 6,-6 z"/>
 <path style="fill:#f4f4f7" d="M 32,4 C 16.488,4 4,16.488 4,32 4,47.512 16.488,60 32,60 47.512,60 60,47.512 60,32 60,16.488 47.512,4 32,4 Z m 0,16 A 12,12 0 0 1 44,32 12,12 0 0 1 32,44 12,12 0 0 1 20,32 12,12 0 0 1 32,20 Z"/>
 <path style="opacity:0.2;fill:#f4f4f7" d="M 32 4 C 16.488 4 4 16.488 4 32 C 4 32.113556 4.0112845 32.224032 4.0175781 32.335938 C 4.3691213 17.134181 16.710728 5 32 5 C 47.287972 5 59.630821 17.13209 59.984375 32.332031 C 59.990631 32.221433 60 32.112217 60 32 C 60 16.488 47.512 4 32 4 z M 20.050781 32.996094 A 12 12 0 0 0 20 34 A 12 12 0 0 0 20.025391 34.5 A 12 12 0 0 1 20.050781 33.996094 A 12 12 0 0 0 32 45 A 12 12 0 0 0 43.949219 34.003906 A 12 12 0 0 1 43.978516 34.595703 A 12 12 0 0 0 44 34 A 12 12 0 0 0 43.949219 33.003906 A 12 12 0 0 1 32 44 A 12 12 0 0 1 20.050781 32.996094 z"/>
 <path style="opacity:0.2" d="M 63.958,45.848 A 16,16 0 0 1 48,61 16,16 0 0 1 32.042,46.152 16,16 0 0 0 32,47 16,16 0 0 0 48,63 16,16 0 0 0 64,47 16,16 0 0 0 63.95704,45.84766 Z"/>
 <circle style="fill:#ff5722" cx="48" cy="46" r="16"/>
 <path style="fill:#f4f4f7" d="M 49.854,38 C 44.946,40 42,44.688 42,48 c 0,3.2748 2.5768,5.932 5.7774,5.9942 C 46.17804,53.96222 44.8896,52.6368 44.8896,51 c 0,-1.65686 1.47262,-4 3.927,-5 0,3.5 2.6352,4.006 1.96348,6 -0.38086,1.13066 -1.30986,1.98882 -2.9204,1.99804 0.0096,5e-5 0.0203,0.0011 0.03058,0.0011 3.2532,0 5.1246,-1.7264 5.8904,-4 1.3434,-3.9882 -3.927,-5 -3.927,-12 z"/>
</svg>

<svg xmlns="http://www.w3.org/2000/svg" width="64" height="64" version="1"><path style="opacity:.2" d="M32 5C16.488 5 4 17.488 4 33s12.488 28 28 28 28-12.488 28-28S47.512 5 32 5zm0 16a12 12 0 0 1 12 12 12 12 0 0 1-12 12 12 12 0 0 1-12-12 12 12 0 0 1 12-12z"/><path style="fill:#848484" d="M32 17a15 15 0 0 0-15 15 15 15 0 0 0 15 15 15 15 0 0 0 15-15 15 15 0 0 0-15-15zm0 9a6 6 0 1 1 0 12 6 6 0 0 1 0-12z"/><path style="fill:#f4f4f7" d="M32 4C16.488 4 4 16.488 4 32s12.488 28 28 28 28-12.488 28-28S47.512 4 32 4zm0 16a12 12 0 0 1 12 12 12 12 0 0 1-12 12 12 12 0 0 1-12-12 12 12 0 0 1 12-12z"/><path style="opacity:.2;fill:#f4f4f7" d="M32 4C16.488 4 4 16.488 4 32c0 .114.011.224.018.336C4.369 17.134 16.71 5 32 5c15.288 0 27.63 12.132 27.984 27.332.007-.11.016-.22.016-.332C60 16.488 47.512 4 32 4zM20.05 32.996A12 12 0 0 0 20 34a12 12 0 0 0 .025.5 12 12 0 0 1 .026-.504A12 12 0 0 0 32 45a12 12 0 0 0 11.95-10.996 12 12 0 0 1 .029.592A12 12 0 0 0 44 34a12 12 0 0 0-.05-.996A12 12 0 0 1 32 44a12 12 0 0 1-11.95-11.004z"/><path style="opacity:.2" d="M63.958 45.848A16 16 0 0 1 48 61a16 16 0 0 1-15.958-14.848A16 16 0 0 0 32 47a16 16 0 0 0 16 16 16 16 0 0 0 16-16 16 16 0 0 0-.043-1.152z"/><circle style="fill:#ff5722" cx="48" cy="46" r="16"/><path style="fill:#f4f4f7" d="M49.854 38C44.946 40 42 44.688 42 48c0 3.275 2.577 5.932 5.777 5.994-1.599-.032-2.887-1.357-2.887-2.994 0-1.657 1.472-4 3.927-5 0 3.5 2.635 4.006 1.963 6-.38 1.13-1.31 1.989-2.92 1.998l.03.001c3.253 0 5.125-1.726 5.89-4 1.344-3.988-3.926-5-3.926-12z"/></svg>
